images/icons/dev-to.svg

<svg fill="none" height="24" viewBox="0 0 21 24" width="21" xmlns="http://www.w3.org/2000/svg"><path d="m5.63063 9.76359c-.18188-.13593-.36422-.2039-.5461-.2039h-.8175v4.89701h.81797c.18188 0 .36422-.068.54609-.2039.18188-.1359.27282-.3398.27282-.6122v-3.2648c-.00047-.2719-.09188-.47627-.27328-.61221zm13.31157-8.26359h-16.88439c-1.134372 0-2.0549975.91828-2.05781 2.05313v16.89377c.0028125 1.1348.923438 2.0531 2.05781 2.0531h16.88439c1.1348 0 2.055-.9183 2.0578-2.0531v-16.89377c-.0028-1.13485-.9234-2.05313-2.0578-2.05313zm-11.71408 12.1495c0 .8818-.54421 2.2177-2.26687 2.2149h-2.175v-7.75596h2.22094c1.66125 0 2.22 1.33406 2.22047 2.21626zm4.71938-4.15591h-2.4975v1.80091h1.5267v1.3861h-1.5267v1.8005h2.498v1.3861h-2.91472c-.52312.0136-.95812-.3999-.97125-.923v-5.86451c-.01265-.52266.40125-.95672.92391-.96985h2.96206zm4.8581 5.40421c-.6187 1.4414-1.7273 1.1545-2.2237 0l-1.8061-6.78749h1.5267l1.3927 5.33059 1.386-5.33059h1.5272z" fill="#000"/></svg>

<svg width="21" height="24" viewBox="0 0 21 24" fill="none" xmlns="http://www.w3.org/2000/svg">
<path d="M5.63063 9.76359C5.44875 9.62766 5.26641 9.55969 5.08453 9.55969H4.26703V14.4567H5.085C5.26688 14.4567 5.44922 14.3887 5.63109 14.2528C5.81297 14.1169 5.90391 13.913 5.90391 13.6406V10.3758C5.90344 10.1039 5.81203 9.89953 5.63063 9.76359ZM18.9422 1.5H2.05781C0.923438 1.5 0.0028125 2.41828 0 3.55313V20.4469C0.0028125 21.5817 0.923438 22.5 2.05781 22.5H18.9422C20.077 22.5 20.9972 21.5817 21 20.4469V3.55313C20.9972 2.41828 20.0766 1.5 18.9422 1.5ZM7.22812 13.6495C7.22812 14.5313 6.68391 15.8672 4.96125 15.8644H2.78625V8.10844H5.00719C6.66844 8.10844 7.22719 9.4425 7.22766 10.3247L7.22812 13.6495ZM11.9475 9.49359H9.45V11.2945H10.9767V12.6806H9.45V14.4811H11.948V15.8672H9.03328C8.51016 15.8808 8.07516 15.4673 8.06203 14.9442V9.07969C8.04938 8.55703 8.46328 8.12297 8.98594 8.10984H11.948L11.9475 9.49359ZM16.8056 14.8978C16.1869 16.3392 15.0783 16.0523 14.5819 14.8978L12.7758 8.11031H14.3025L15.6952 13.4409L17.0812 8.11031H18.6084L16.8056 14.8978Z" fill="black"/>
</svg>
